src/images/socials/linkedin.svg

<?xml version="1.0" ?><!DOCTYPE svg  PUBLIC '-//W3C//DTD SVG 1.0//EN'  'http://www.w3.org/TR/2001/REC-SVG-20010904/DTD/svg10.dtd'><svg enable-background="new 0 0 32 32" height="32px" id="Layer_1" version="1.0" viewBox="0 0 32 32" width="32px" xml:space="preserve" xmlns="http://www.w3.org/2000/svg" xmlns:xlink="http://www.w3.org/1999/xlink"><g><path d="M32,30c0,1.104-0.896,2-2,2H2c-1.104,0-2-0.896-2-2V2c0-1.104,0.896-2,2-2h28c1.104,0,2,0.896,2,2V30z" fill="#007BB5"/><g><rect fill="#FFFFFF" height="14" width="4" x="7" y="11"/><path d="M20.499,11c-2.791,0-3.271,1.018-3.499,2v-2h-4v14h4v-8c0-1.297,0.703-2,2-2c1.266,0,2,0.688,2,2v8h4v-7    C25,14,24.479,11,20.499,11z" fill="#FFFFFF"/><circle cx="9" cy="8" fill="#FFFFFF" r="2"/></g></g><g/><g/><g/><g/><g/><g/></svg>

<svg width="32" height="32" viewBox="0 0 32 32" fill="none" xmlns="http://www.w3.org/2000/svg">
<g clip-path="url(#clip0_1103_679)">
<path d="M32 30C32 31.104 31.104 32 30 32H2C0.896 32 0 31.104 0 30V2C0 0.896 0.896 0 2 0H30C31.104 0 32 0.896 32 2V30Z" fill="#FC4A6E"/>
<path d="M11 11H7V25H11V11Z" fill="white"/>
<path d="M20.499 11C17.708 11 17.228 12.018 17 13V11H13V25H17V17C17 15.703 17.703 15 19 15C20.266 15 21 15.688 21 17V25H25V18C25 14 24.479 11 20.499 11Z" fill="white"/>
<path d="M9 10C10.1046 10 11 9.10457 11 8C11 6.89543 10.1046 6 9 6C7.89543 6 7 6.89543 7 8C7 9.10457 7.89543 10 9 10Z" fill="white"/>
</g>
<defs>
<clipPath id="clip0_1103_679">
<rect width="32" height="32" fill="white"/>
</clipPath>
</defs>
</svg>
